X: 1
T:Brad Maloney's
M:C|
R:Reel
C:Brad Maloney
Z: Contributed 20000914053117 by Brad Maloney BMalo5000@aol.com
K:C
EA (3AAA EGDF | EA (3AAA ABcd | ea~a2 e^fge |1 dBGB d2GF :|2 dBcB A2cd ||
 ea~a2 e^fge | dB~B2 GABd | eg~g2  e^fgd |eaa^g a2ag |
fd (3ddd ec (3ccc |dB (3BBB cBAG | EA (3AAA ABcd |1 cABG A2cd :|2 cABG A3z |]
